build/img/svg/icon-house.svg

<svg width="39" height="37" fill="none" xmlns="http://www.w3.org/2000/svg"><path d="M15 33h8V21h-8v12zm7-1h-6V22h6v10z" fill="#81B3D2"/><path d="M38 20l1-1-5-5V0h-7v7l-8-7L0 19l1 1 4-4v20H3v1h33v-1h-2V16l4 4zM28 2h4v11l-4-5V2zm4 33H7V15L19 2l13 13v20z" fill="#81B3D2"/><path d="M16 14c0 2.22 1.832 4 4 4 2.22 0 4-1.78 4-4 0-2.22-1.78-4-4-4-2.22 0-4 1.78-4 4zm4-3c1.393 0 3 1.555 3 3 0 1.393-1.555 3-3 3-1.393 0-3-1.555-3-3 0-1.393 1.607-3 3-3zM11 21H9v2h2v-2zM14 21h-2v2h2v-2zM11 24H9v2h2v-2zM14 24h-2v2h2v-2zM27 21h-2v2h2v-2zM31 21h-2v2h2v-2zM27 24h-2v2h2v-2zM31 24h-2v2h2v-2z" fill="#81B3D2"/></svg>

<svg width="39" height="37" viewBox="0 0 39 37" fill="none" xmlns="http://www.w3.org/2000/svg">
<path d="M15 33H23V21H15V33ZM22 32H16V22H22V32Z" fill="#81B3D2"/>
<path d="M38 20L39 19L34 14V0H27V7L19 0L0 19L1 20L5 16V36H3V37H36V36H34V16L38 20ZM28 2H32V13L28 8V2ZM32 35H7V15L19 2L32 15V35Z" fill="#81B3D2"/>
<path d="M16 14C16 16.2194 17.8323 18 20 18C22.2194 18 24 16.2194 24 14C24 11.7806 22.2194 10 20 10C17.7806 10 16 11.7806 16 14ZM20 11C21.3935 11 23 12.5548 23 14C23 15.3935 21.4452 17 20 17C18.6065 17 17 15.4452 17 14C17 12.6065 18.6065 11 20 11Z" fill="#81B3D2"/>
<path d="M11 21H9V23H11V21Z" fill="#81B3D2"/>
<path d="M14 21H12V23H14V21Z" fill="#81B3D2"/>
<path d="M11 24H9V26H11V24Z" fill="#81B3D2"/>
<path d="M14 24H12V26H14V24Z" fill="#81B3D2"/>
<path d="M27 21H25V23H27V21Z" fill="#81B3D2"/>
<path d="M31 21H29V23H31V21Z" fill="#81B3D2"/>
<path d="M27 24H25V26H27V24Z" fill="#81B3D2"/>
<path d="M31 24H29V26H31V24Z" fill="#81B3D2"/>
</svg>
